icons/sports-running.svg

<svg id="strib-sports-running" viewBox="0 0 16 16" width="16" height="16" fill="currentcolor" class="strib-icon strib-sports-running" xmlns="http://www.w3.org/2000/svg">
  <path d="M10.497 9.878 8.309 7.691A.43.43 0 0 0 8 7.563a.43.43 0 0 0-.309.128l-5.816 5.815.619.619L8 8.619l1.569 1.569-2.444 2.443.619.619 2.753-2.753a.44.44 0 0 0 0-.619"/>
  <path d="m13.506 4.938-2.443 2.443-2.626-2.625a.87.87 0 0 0-.622-.256.87.87 0 0 0-.615.256L4.5 7.457l.619.619 2.699-2.701 2.935 2.934a.437.437 0 0 0 .619 0l2.753-2.753z"/>
  <path d="M10.844 4.938a1.533 1.533 0 0 1 0-3.063c.844 0 1.531.687 1.531 1.531 0 .845-.687 1.532-1.531 1.532m0-2.188a.656.656 0 1 0 0 1.313.656.656 0 0 0 0-1.313"/>
</svg>

<svg id="strib-sports-running" viewBox="0 0 16 16" width="16" height="16" fill="currentcolor" class="strib-icon strib-sports-running" xmlns="http://www.w3.org/2000/svg">
  <path d="M10.497,9.878L8.309,7.691C8.224,7.605 8.112,7.563 8,7.563C7.888,7.563 7.776,7.605 7.691,7.691L1.875,13.506L2.494,14.125L8,8.619L9.569,10.188L7.125,12.631L7.744,13.25L10.497,10.497C10.582,10.411 10.625,10.299 10.625,10.188C10.625,10.076 10.582,9.964 10.497,9.878Z"/>
  <path d="M13.506,4.938L11.063,7.381L8.437,4.756C8.265,4.584 8.04,4.499 7.815,4.5C7.592,4.501 7.369,4.586 7.2,4.756L4.5,7.457L5.119,8.076L7.818,5.375L10.753,8.309C10.839,8.395 10.951,8.438 11.063,8.438C11.174,8.438 11.287,8.395 11.372,8.309L14.125,5.556L13.506,4.938Z"/>
  <path d="M10.844,4.938C9.999,4.938 9.313,4.251 9.313,3.406C9.313,2.562 9.999,1.875 10.844,1.875C11.688,1.875 12.375,2.562 12.375,3.406C12.375,4.251 11.688,4.938 10.844,4.938ZM10.844,2.75C10.482,2.75 10.188,3.044 10.188,3.406C10.188,3.768 10.482,4.063 10.844,4.063C11.206,4.063 11.5,3.768 11.5,3.406C11.5,3.044 11.206,2.75 10.844,2.75Z"/>
</svg>
